public/icons/twitter_icon.svg

<svg width="30" height="30" viewBox="0 0 30 30" fill="none" xmlns="http://www.w3.org/2000/svg">
<circle cx="15" cy="15" r="15" fill="white"/>
<path d="M21.6668 10.8668C21.1657 11.0842 20.6358 11.2279 20.0935 11.2935C20.6656 10.9517 21.0943 10.414 21.3002 9.78014C20.7625 10.1002 20.174 10.3257 19.5602 10.4468C19.1499 10.0019 18.6035 9.70567 18.0067 9.60471C17.4099 9.50374 16.7965 9.60371 16.2627 9.88893C15.7289 10.1742 15.3048 10.6285 15.057 11.1807C14.8092 11.7329 14.7517 12.3517 14.8935 12.9401C13.8064 12.8852 12.7431 12.6021 11.7726 12.1094C10.8021 11.6167 9.94606 10.9253 9.26016 10.0801C9.01959 10.5003 8.89318 10.976 8.8935 11.4601C8.89264 11.9097 9.00297 12.3526 9.21467 12.7492C9.42636 13.1458 9.73284 13.4839 10.1068 13.7335C9.67215 13.7216 9.24675 13.605 8.86683 13.3935V13.4268C8.87009 14.0567 9.09083 14.6662 9.49171 15.1521C9.89259 15.638 10.449 15.9706 11.0668 16.0935C10.829 16.1659 10.5821 16.204 10.3335 16.2068C10.1614 16.2048 9.98978 16.1892 9.82016 16.1601C9.9961 16.702 10.3366 17.1756 10.7942 17.5149C11.2518 17.8543 11.8039 18.0425 12.3735 18.0535C11.4116 18.8103 10.2241 19.2234 9.00016 19.2268C8.77732 19.2275 8.55465 19.2142 8.3335 19.1868C9.58312 19.9936 11.0394 20.422 12.5268 20.4201C13.5533 20.4308 14.5716 20.2368 15.5222 19.8495C16.4729 19.4622 17.3368 18.8894 18.0636 18.1645C18.7904 17.4395 19.3655 16.5771 19.7552 15.6274C20.1449 14.6778 20.3415 13.66 20.3335 12.6335C20.3335 12.5201 20.3335 12.4001 20.3335 12.2801C20.8566 11.89 21.3078 11.4118 21.6668 10.8668Z" fill="#4E4B66"/>
</svg>

<svg width="30" height="30" fill="none" xmlns="http://www.w3.org/2000/svg"><circle cx="15" cy="15" r="15" fill="#fff"/><path d="M21.667 10.867a5.661 5.661 0 0 1-1.574.426A2.747 2.747 0 0 0 21.3 9.78a5.473 5.473 0 0 1-1.74.667 2.734 2.734 0 0 0-4.666 2.493 7.759 7.759 0 0 1-5.634-2.86 2.774 2.774 0 0 0-.045 2.67c.211.396.518.734.892.983a2.701 2.701 0 0 1-1.24-.34v.034a2.733 2.733 0 0 0 2.2 2.666 2.608 2.608 0 0 1-.733.114 3.26 3.26 0 0 1-.514-.047 2.74 2.74 0 0 0 2.553 1.893 5.48 5.48 0 0 1-4.04 1.134 7.713 7.713 0 0 0 4.194 1.233 7.725 7.725 0 0 0 7.807-7.787v-.353c.523-.39.974-.868 1.333-1.413Z" fill="#4E4B66"/></svg>
